public/img/icon-molecule.svg

<svg height="105" viewBox="0 0 105 105" width="105" xmlns="http://www.w3.org/2000/svg" xmlns:xlink="http://www.w3.org/1999/xlink"><linearGradient id="a" x1="97.887973%" x2="0%" y1="5.247687%" y2="95.880878%"><stop offset="0" stop-color="#3aafe6"/><stop offset="1" stop-color="#8239e6"/></linearGradient><g fill="none" fill-rule="evenodd"><path d="m96.8835616 88.7671233c-1.6818493 0-3.2457534.5145205-4.5431506 1.3939726l-27.2566439-27.2566438c2.3422603-2.8278083 3.7518493-6.4545206 3.7518493-10.4044521s-1.409589-7.5766438-3.7518493-10.4044521l18.8026028-18.8026027c2.2218493 1.7529452 5.0225342 2.8029452 8.0656849 2.8029452 7.1946575 0 13.0479452-5.8532877 13.0479452-13.0479452 0-7.19465753-5.8532877-13.0479452-13.0479452-13.0479452s-13.0479452 5.85328767-13.0479452 13.0479452c0 3.0431507 1.05 5.8438356 2.8029452 8.0656849l-18.8026027 18.8026028c-2.8278083-2.3422603-6.4545206-3.7518493-10.4044521-3.7518493s-7.5766438 1.409589-10.4044521 3.7518493l-12.4621232-12.4621233c.879452-1.2971918 1.3939726-2.8610959 1.3939726-4.5431507 0-4.4753425-3.6410959-8.1164384-8.1164384-8.1164384s-8.1164384 3.6410959-8.1164384 8.1164384 3.6410959 8.1164384 8.1164384 8.1164384c1.6818493 0 3.2457534-.5145206 4.5431507-1.3939726l12.4621233 12.4621232c-2.3422603 2.8278083-3.7518493 6.4545206-3.7518493 10.4044521 0 1.8976027.3287671 3.7189726.9263013 5.4147945l-19.2285616 8.8746576c-1.7543836-2.6058905-4.7311644-4.3236987-8.10184933-4.3236987-5.38171233 0-9.76027397 4.3785617-9.76027397 9.760274s4.37856164 9.760274 9.76027397 9.760274 9.76027393-4.3785617 9.76027393-9.760274c0-.9143836-.1292465-1.7987671-.3653424-2.6387671l19.2318493-8.8763014c2.825137 4.8369863 8.0613699 8.1002055 14.0504794 8.1230137l1.0941781 12.0353425c-3.3809589.980137-5.8604794 4.1026027-5.8604794 7.7950685 0 4.4753424 3.6410959 8.1164383 8.1164383 8.1164383 4.4753425 0 8.1164384-3.6410959 8.1164384-8.1164383 0-4.200822-3.2081507-7.6662329-7.3031507-8.075548l-1.0939726-12.0353424c2.7743836-.5186302 5.305274-1.7367124 7.3974658-3.4697261l27.2566438 27.2566439c-.8794521 1.2971917-1.3939726 2.8610958-1.3939726 4.5431506 0 4.4753424 3.6410959 8.1164384 8.1164383 8.1164384s8.1164384-3.641096 8.1164384-8.1164384-3.641096-8.1164383-8.1164384-8.1164383zm-87.3835616-9.7671233c-3.584 0-6.5-2.916-6.5-6.5s2.916-6.5 6.5-6.5c2.5754 0 4.8058 1.5058 5.8572 3.683.0122.032.024.0642.0386.0958.008.0174.0188.0324.0274.0494.3694.8158.5768 1.7198.5768 2.6718 0 3.584-2.916 6.5-6.5 6.5zm82.5-76c5.5140206 0 10 4.48597938 10 10 0 5.5140206-4.4859794 10-10 10s-10-4.4859794-10-10c0-5.51402062 4.4859794-10 10-10zm-74 20c0-2.7569388 2.2430612-5 5-5s5 2.2430612 5 5-2.2430612 5-5 5-5-2.2430612-5-5zm21 29.5c0-7.4438372 6.0561628-13.5 13.5-13.5s13.5 6.0561628 13.5 13.5-6.0561628 13.5-13.5 13.5-13.5-6.0561628-13.5-13.5zm22 36.5c0 2.7569388-2.2430612 5-5 5s-5-2.2430612-5-5 2.2430612-5 5-5 5 2.2430612 5 5zm36 13c-2.7569388 0-5-2.2430612-5-5s2.2430612-5 5-5 5 2.2430612 5 5-2.2430612 5-5 5z" fill="url(#a)"/><path d="m59.7272727 52.3636364c0 .9037091.7326546 1.6363636 1.6363637 1.6363636s1.6363636-.7326545 1.6363636-1.6363636c0-5.7144-4.6492364-10.3636364-10.3636364-10.3636364-.9037091 0-1.6363636.7326545-1.6363636 1.6363636s.7326545 1.6363637 1.6363636 1.6363637c3.9098182 0 7.0909091 3.1810909 7.0909091 7.0909091z" fill="#5484e6"/><path d="m91.5384615 10.0769231c1.8662564 0 3.3846154 1.518359 3.3846154 3.3846154 0 .849641.6888205 1.5384615 1.5384616 1.5384615.849641 0 1.5384615-.6888205 1.5384615-1.5384615 0-3.56287183-2.8986667-6.4615385-6.4615385-6.4615385-.849641 0-1.5384615.68882051-1.5384615 1.53846154 0 .84964102.6888205 1.53846156 1.5384615 1.53846156z" fill="#40a4e6"/><path d="m9.63043478 69c-.90043478 0-1.63043478.73-1.63043478 1.6304348s.73 1.6304348 1.63043478 1.6304348c.06 0 .10869565.0486956.10869565.1086956 0 .9004348.72999997 1.6304348 1.63043477 1.6304348s1.6304348-.73 1.6304348-1.6304348c0-1.8580435-1.5115217-3.3695652-3.36956522-3.3695652z" fill="#7154e6"/></g></svg>

<?xml version="1.0" encoding="UTF-8"?>
<svg width="105px" height="105px" viewBox="0 0 105 105" version="1.1" xmlns="http://www.w3.org/2000/svg" xmlns:xlink="http://www.w3.org/1999/xlink">
    <!-- Generator: Sketch 51.2 (57519) - http://www.bohemiancoding.com/sketch -->
    <title>molecule</title>
    <desc>Created with Sketch.</desc>
    <defs>
        <linearGradient x1="97.887973%" y1="5.24768707%" x2="0%" y2="95.8808775%" id="linearGradient-1">
            <stop stop-color="#3AAFE6" offset="0%"></stop>
            <stop stop-color="#8239E6" offset="100%"></stop>
        </linearGradient>
    </defs>
    <g id="FDS-Design-Pages" stroke="none" stroke-width="1" fill="none" fill-rule="evenodd">
        <g id="Home" transform="translate(-620.000000, -442.000000)">
            <g id="Principles-Tile" transform="translate(448.000000, 402.000000)">
                <g id="molecule" transform="translate(172.000000, 40.000000)">
                    <path d="M96.8835616,88.7671233 C95.2017123,88.7671233 93.6378082,89.2816438 92.340411,90.1610959 L65.0837671,62.9044521 C67.4260274,60.0766438 68.8356164,56.4499315 68.8356164,52.5 C68.8356164,48.5500685 67.4260274,44.9233562 65.0837671,42.0955479 L83.8863699,23.2929452 C86.1082192,25.0458904 88.9089041,26.0958904 91.9520548,26.0958904 C99.1467123,26.0958904 105,20.2426027 105,13.0479452 C105,5.85328767 99.1467123,0 91.9520548,0 C84.7573973,0 78.9041096,5.85328767 78.9041096,13.0479452 C78.9041096,16.0910959 79.9541096,18.8917808 81.7070548,21.1136301 L62.9044521,39.9162329 C60.0766438,37.5739726 56.4499315,36.1643836 52.5,36.1643836 C48.5500685,36.1643836 44.9233562,37.5739726 42.0955479,39.9162329 L29.6334247,27.4541096 C30.5128767,26.1569178 31.0273973,24.5930137 31.0273973,22.9109589 C31.0273973,18.4356164 27.3863014,14.7945205 22.9109589,14.7945205 C18.4356164,14.7945205 14.7945205,18.4356164 14.7945205,22.9109589 C14.7945205,27.3863014 18.4356164,31.0273973 22.9109589,31.0273973 C24.5928082,31.0273973 26.1567123,30.5128767 27.4541096,29.6334247 L39.9162329,42.0955479 C37.5739726,44.9233562 36.1643836,48.5500685 36.1643836,52.5 C36.1643836,54.3976027 36.4931507,56.2189726 37.0906849,57.9147945 L17.8621233,66.7894521 C16.1077397,64.1835616 13.1309589,62.4657534 9.76027397,62.4657534 C4.37856164,62.4657534 0,66.8443151 0,72.2260274 C0,77.6077397 4.37856164,81.9863014 9.76027397,81.9863014 C15.1419863,81.9863014 19.5205479,77.6077397 19.5205479,72.2260274 C19.5205479,71.3116438 19.3913014,70.4272603 19.1552055,69.5872603 L38.3870548,60.7109589 C41.2121918,65.5479452 46.4484247,68.8111644 52.4375342,68.8339726 L53.5317123,80.8693151 C50.1507534,81.8494521 47.6712329,84.9719178 47.6712329,88.6643836 C47.6712329,93.139726 51.3123288,96.7808219 55.7876712,96.7808219 C60.2630137,96.7808219 63.9041096,93.139726 63.9041096,88.6643836 C63.9041096,84.4635616 60.6959589,80.9981507 56.6009589,80.5888356 L55.5069863,68.5534932 C58.2813699,68.034863 60.8122603,66.8167808 62.9044521,65.0837671 L90.1610959,92.340411 C89.2816438,93.6376027 88.7671233,95.2015068 88.7671233,96.8835616 C88.7671233,101.358904 92.4082192,105 96.8835616,105 C101.358904,105 105,101.358904 105,96.8835616 C105,92.4082192 101.358904,88.7671233 96.8835616,88.7671233 Z M9.5,79 C5.916,79 3,76.084 3,72.5 C3,68.916 5.916,66 9.5,66 C12.0754,66 14.3058,67.5058 15.3572,69.683 C15.3694,69.715 15.3812,69.7472 15.3958,69.7788 C15.4038,69.7962 15.4146,69.8112 15.4232,69.8282 C15.7926,70.644 16,71.548 16,72.5 C16,76.084 13.084,79 9.5,79 Z M92,3 C97.5140206,3 102,7.48597938 102,13 C102,18.5140206 97.5140206,23 92,23 C86.4859794,23 82,18.5140206 82,13 C82,7.48597938 86.4859794,3 92,3 Z M18,23 C18,20.2430612 20.2430612,18 23,18 C25.7569388,18 28,20.2430612 28,23 C28,25.7569388 25.7569388,28 23,28 C20.2430612,28 18,25.7569388 18,23 Z M39,52.5 C39,45.0561628 45.0561628,39 52.5,39 C59.9438372,39 66,45.0561628 66,52.5 C66,59.9438372 59.9438372,66 52.5,66 C45.0561628,66 39,59.9438372 39,52.5 Z M61,89 C61,91.7569388 58.7569388,94 56,94 C53.2430612,94 51,91.7569388 51,89 C51,86.2430612 53.2430612,84 56,84 C58.7569388,84 61,86.2430612 61,89 Z M97,102 C94.2430612,102 92,99.7569388 92,97 C92,94.2430612 94.2430612,92 97,92 C99.7569388,92 102,94.2430612 102,97 C102,99.7569388 99.7569388,102 97,102 Z" id="Shape" fill="url(#linearGradient-1)"></path>
                    <path d="M59.7272727,52.3636364 C59.7272727,53.2673455 60.4599273,54 61.3636364,54 C62.2673455,54 63,53.2673455 63,52.3636364 C63,46.6492364 58.3507636,42 52.6363636,42 C51.7326545,42 51,42.7326545 51,43.6363636 C51,44.5400727 51.7326545,45.2727273 52.6363636,45.2727273 C56.5461818,45.2727273 59.7272727,48.4538182 59.7272727,52.3636364 Z" id="Shape" fill="#5484E6"></path>
                    <path d="M91.5384615,10.0769231 C93.4047179,10.0769231 94.9230769,11.5952821 94.9230769,13.4615385 C94.9230769,14.3111795 95.6118974,15 96.4615385,15 C97.3111795,15 98,14.3111795 98,13.4615385 C98,9.89866667 95.1013333,7 91.5384615,7 C90.6888205,7 90,7.68882051 90,8.53846154 C90,9.38810256 90.6888205,10.0769231 91.5384615,10.0769231 Z" id="Shape" fill="#40A4E6"></path>
                    <path d="M9.63043478,69 C8.73,69 8,69.73 8,70.6304348 C8,71.5308696 8.73,72.2608696 9.63043478,72.2608696 C9.69043478,72.2608696 9.73913043,72.3095652 9.73913043,72.3695652 C9.73913043,73.27 10.4691304,74 11.3695652,74 C12.27,74 13,73.27 13,72.3695652 C13,70.5115217 11.4884783,69 9.63043478,69 Z" id="Shape" fill="#7154E6"></path>
                </g>
            </g>
        </g>
    </g>
</svg>
